!!!OTL: "Muenchen" BIN IN MUENCHEN GEWESEN
!!!ARE: Europa, Mitteleuropa, Deutschland, Oberbayern
!!!SCT: Z1327
!!!YEM: Copyright 1995, estate of Helmut Schaffrath.
**kern
*ICvox
*Ivox
*M3/4
*k[f#]
*G:
{8b
8cc
=1
4.b
8a
8a
8f#
=2
4g
4b}
{8b
8b
=3
4.dd
8cc
8a
8d
=4
4dd
4r}
{8b
8cc
=5
4.b
8a
8a
8f#
=6
4g
4g}
{8g
8b
=7
4.ee
8dd
8cc
8f#
=8
4g
4r}
{8g
8b
=9
4dd
4dd
4dd
=10
4b
4g}
{8g
8b
=11
4.dd
8f#
4f#
=12
4g
4r}
{8b
8cc
=13
4.b
8a
8a
8f#
=14
4g
4b}
{4b
=15
4.dd
8a
8a
8d
=16
4dd
4r}
{8b
8cc
=17
4.b
8a
8a
8f#
=18
4g
4b}
{8g
8b
=19
4.ee
8dd
8cc
8f#
=20
4g
4r}
==
!!!AGN: Zech -, Schalks - Lied
!!!ONB: ESAC (Essen Associative Code) Database: ZUCCAL
!!!AMT: simple triple
!!!AIN: vox
!!!EED: Helmut Schaffrath
!!!EEV: 1.0
*-
